X:470
T: Merry Blacksmith
M: C|
L: 1/8
R: Reel
K: D
d2 dA BAFA|ABdA BAFA|ABde f2ed|Beed egfe|
d2 dA BAFA|ABdA BAFA|ABde fdec|dBAG FD D2 :|
a2 ag fgfe|d2 dA BAFA|ABde f2ed|Beed egfe|
abag fgfe|d2 dA BAFA|ABde fdec|dBAG FD D2 :|
